X: 13154
T: First Month Of Summer, The
R: reel
M: 4/4
K: Gmajor
|dB B2 BAFA|D2 FA defe|dBBF A3B|defd egfe|
dB B2 BAFB|A2FA defg|afge fdec|dBAB e3f||
af f2 afbf|af f2 afef|af f2 a3f|egfe dBA2|
af f2 afbf|af f2 afea|fa a2 fb b2|bafe fgfe||

